icons/lines/frame.svg

<svg xmlns="http://www.w3.org/2000/svg" width="24" height="24" viewBox="0 0 24 24" fill="none" stroke="currentColor" stroke-width="2" stroke-linecap="round" stroke-linejoin="round" >
  <path d="M19.2598 18.9V7.1C19.2598 5.6 18.6198 5 17.0298 5H15.9898C14.3998 5 13.7598 5.6 13.7598 7.1V18.9"/>
  <path d="M5.25977 18.9V12.1C5.25977 10.6 5.89977 10 7.48977 10H8.52977C10.1198 10 10.7598 10.6 10.7598 12.1V18.9"/>
  <path d="M2 19H22"/>
  </svg>

<svg xmlns="http://www.w3.org/2000/svg" width="24" height="24" viewBox="0 0 24 24" fill="none" stroke="currentColor" stroke-width="2" stroke-linecap="round" stroke-linejoin="round">
  <path d="M19.26 18.9V7.1c0-1.5-.64-2.1-2.23-2.1h-1.04c-1.59 0-2.23.6-2.23 2.1v11.8" />
  <path d="M2 19h20" />
  <path d="M5.26 18.9v-6.8c0-1.5.64-2.1 2.23-2.1h1.04c1.59 0 2.23.6 2.23 2.1v6.8" />
</svg>
